X: 1
T: Finore
M: 4/4
L: 1/8
R: reel
K: Emin
|:E2ED EFGA|B2BG ABcd|eg~g2 afge|
d2cA dcAF|GE~E2 G3A|BcBG ABcd|
ecdB c/B/A B/A/G|1EFGA BAGD:|2EFGA BAA2||
|:ae~e2 aege|d2cA dcAf|g3f gedB|
DEGA BAab|c'3b agde|d2cA dcA2|
ABcd eEED|1 EFGE BAA2:|2 EFGA BAGA||&quot;fine&quot;E2|
